src/assets/machine.svg

<svg width="89" height="124" viewBox="0 0 89 124" fill="none" xmlns="http://www.w3.org/2000/svg">
<g filter="url(#filter0_d_186_25329)">
<path fill-rule="evenodd" clip-rule="evenodd" d="M41.2128 0.797855C35.5495 1.83425 30.5325 5.62695 28.0087 10.7804C26.6371 13.5805 26.1126 15.7983 26.0997 18.851C26.0726 25.22 28.9342 30.6714 34.1491 34.1852C37.096 36.1708 39.7409 37.0635 43.3176 37.2796C56.2347 38.06 65.7188 25.4193 61.6015 12.9102C59.7578 7.30787 54.7739 2.63368 49.0566 1.14422C47.3986 0.712442 42.7918 0.508885 41.2128 0.797855ZM55.6151 17.4546C55.1242 17.8801 54.9956 18.2396 54.8329 19.6403C54.5992 21.6533 54.4141 22.3141 53.669 23.7951C52.0467 27.0202 48.226 29.4375 44.6738 29.4866C43.3693 29.5048 42.5138 30.2645 42.5138 31.4052C42.5138 33.2044 44.362 33.7568 47.7213 32.9616C50.3033 32.3505 52.2921 31.1886 54.4016 29.0593C57.0225 26.4135 58.3371 23.6796 58.7365 20.0441C59.0152 17.5102 57.2453 16.042 55.6151 17.4546ZM40.8225 59.2925C40.8225 73.9311 40.8817 77.9343 41.1007 78.0744C41.5651 78.3717 46.206 78.4374 47.225 78.1609L48.1664 77.9056V59.2969V40.6883L47.3319 40.854C46.2548 41.0676 42.7341 41.0676 41.657 40.854L40.8225 40.6883V59.2925ZM16.0089 52.4567C12.8555 53.2472 10.436 55.7069 9.67536 58.8959C9.54673 59.435 8.48943 67.7596 7.32598 77.3949C4.97637 96.8507 5.01464 95.9872 6.38573 98.6077C7.20469 100.173 8.41176 101.314 10.0848 102.104L11.3355 102.695H44.2719H77.2083L78.4808 102.094C81.0611 100.876 82.9512 98.3364 83.2439 95.6953C83.3885 94.3883 79.2379 59.8969 78.7609 58.4437C77.9636 56.014 75.8456 53.6913 73.5913 52.7744C72.3179 52.2563 72.268 52.2541 62.0753 52.2541H51.8384L51.7271 65.9509C51.6318 77.6709 51.5677 79.7087 51.282 80.0712C50.0502 81.6344 48.1321 82.2363 44.3832 82.2363C40.6342 82.2363 38.7161 81.6344 37.4843 80.0712C37.1986 79.7087 37.1345 77.6709 37.0392 65.9509L36.928 52.2541L27.0248 52.2159C19.7603 52.1879 16.8252 52.252 16.0089 52.4567ZM68.2053 81.3062C65.8374 81.7738 63.3743 83.6294 62.3081 85.7488C60.0931 90.152 61.8973 95.37 66.3702 97.4973C67.6923 98.1259 68.0762 98.2048 69.7531 98.1925C72.2407 98.1741 73.772 97.5816 75.5011 95.9688C80.7133 91.1079 78.2246 82.6127 71.2054 81.3055C69.7344 81.0318 69.5957 81.0318 68.2053 81.3062ZM67.8615 85.2852C66.098 86.1319 65.0797 87.7877 65.0797 89.8085C65.0797 92.3962 67.2112 94.5181 69.7998 94.5074C74.657 94.487 76.457 88.3193 72.3958 85.6121C71.1845 84.8046 69.1656 84.6591 67.8615 85.2852ZM4.18545 103.394C4.08842 103.996 4.00519 105.447 4.00051 106.618C3.99273 108.481 4.06795 108.912 4.60005 110.056C5.42902 111.838 6.418 113.039 7.77974 113.917C10.1821 115.465 7.73389 115.373 44.9507 115.308L78.5435 115.249L80.0348 114.538C83.7205 112.778 85.4691 109.18 84.8918 104.541C84.7663 103.532 84.6635 102.673 84.6635 102.632C84.6635 102.592 84.0984 103.022 83.4079 103.589C81.7717 104.931 80.6372 105.582 78.9401 106.153C77.5643 106.615 77.362 106.618 44.5249 106.618C12.3232 106.618 11.4582 106.607 10.0793 106.178C8.37037 105.646 6.79543 104.683 5.40053 103.317L4.36148 102.299L4.18545 103.394Z" fill="#00AACB"/>
</g>
<defs>
<filter id="filter0_d_186_25329" x="0" y="0.663086" width="89" height="122.674" filterUnits="userSpaceOnUse" color-interpolation-filters="sRGB">
<feFlood flood-opacity="0" result="BackgroundImageFix"/>
<feColorMatrix in="SourceAlpha" type="matrix" values="0 0 0 0 0 0 0 0 0 0 0 0 0 0 0 0 0 0 127 0" result="hardAlpha"/>
<feOffset dy="4"/>
<feGaussianBlur stdDeviation="2"/>
<feComposite in2="hardAlpha" operator="out"/>
<feColorMatrix type="matrix" values="0 0 0 0 0 0 0 0 0 0 0 0 0 0 0 0 0 0 0.25 0"/>
<feBlend mode="normal" in2="BackgroundImageFix" result="effect1_dropShadow_186_25329"/>
<feBlend mode="normal" in="SourceGraphic" in2="effect1_dropShadow_186_25329" result="shape"/>
</filter>
</defs>
</svg>

<svg xmlns="http://www.w3.org/2000/svg" width="89" height="124" fill="none" viewBox="0 0 89 124"><g filter="url(#a)"><path fill="#00aacb" fill-rule="evenodd" d="M41.213.798c-5.663 1.036-10.68 4.829-13.204 9.982-1.372 2.8-1.896 5.018-1.91 8.071-.026 6.369 2.835 11.82 8.05 15.334 2.947 1.986 5.592 2.878 9.169 3.095 12.917.78 22.4-11.86 18.284-24.37-1.844-5.602-6.828-10.276-12.545-11.766C47.399.712 42.792.51 41.213.798m14.402 16.657c-.49.425-.62.785-.782 2.185-.234 2.013-.419 2.674-1.164 4.155-1.622 3.225-5.443 5.642-8.995 5.692-1.305.018-2.16.778-2.16 1.918 0 1.8 1.848 2.352 5.207 1.557 2.582-.612 4.571-1.773 6.68-3.903 2.621-2.646 3.936-5.38 4.335-9.015.28-2.534-1.49-4.002-3.12-2.59M40.822 59.293c0 14.638.06 18.641.279 18.781.464.298 5.105.363 6.124.087l.941-.255V40.688l-.834.166c-1.077.214-4.598.214-5.675 0l-.834-.166zM16.01 52.457c-3.154.79-5.573 3.25-6.334 6.439-.128.539-1.186 8.864-2.349 18.499-2.35 19.456-2.311 18.592-.94 21.213.819 1.565 2.026 2.706 3.699 3.496l1.25.591h65.873l1.273-.601c2.58-1.218 4.47-3.758 4.763-6.399.144-1.307-4.006-35.798-4.483-37.251-.797-2.43-2.915-4.753-5.17-5.67-1.273-.518-1.323-.52-11.516-.52H51.838l-.11 13.697c-.096 11.72-.16 13.758-.446 14.12-1.232 1.563-3.15 2.165-6.899 2.165s-5.667-.602-6.899-2.165c-.285-.362-.35-2.4-.445-14.12l-.111-13.697-9.903-.038c-7.265-.028-10.2.036-11.016.24m52.196 28.85c-2.368.467-4.83 2.322-5.897 4.442-2.215 4.403-.41 9.621 4.062 11.748 1.322.629 1.706.708 3.383.695 2.488-.018 4.019-.61 5.748-2.223 5.212-4.861 2.724-13.356-4.296-14.663-1.47-.274-1.61-.274-3 0m-.343 3.978c-1.764.847-2.782 2.503-2.782 4.523 0 2.588 2.131 4.71 4.72 4.7 4.857-.021 6.657-6.189 2.596-8.896-1.212-.807-3.23-.953-4.534-.327M4.185 103.394c-.097.602-.18 2.053-.184 3.224-.008 1.863.067 2.294.6 3.438.828 1.782 1.817 2.983 3.179 3.861 2.402 1.548-.046 1.456 37.17 1.391l33.593-.059 1.492-.711c3.686-1.76 5.434-5.358 4.857-9.997a109 109 0 0 1-.228-1.909c0-.04-.566.39-1.256.957-1.636 1.342-2.77 1.993-4.468 2.564-1.376.462-1.578.465-34.415.465-32.202 0-33.067-.011-34.446-.44-1.709-.532-3.284-1.495-4.678-2.861l-1.04-1.018z" clip-rule="evenodd"/></g><defs><filter id="a" width="89" height="122.674" x="0" y=".663" color-interpolation-filters="sRGB" filterUnits="userSpaceOnUse"><feFlood flood-opacity="0" result="BackgroundImageFix"/><feColorMatrix in="SourceAlpha" result="hardAlpha" values="0 0 0 0 0 0 0 0 0 0 0 0 0 0 0 0 0 0 127 0"/><feOffset dy="4"/><feGaussianBlur stdDeviation="2"/><feComposite in2="hardAlpha" operator="out"/><feColorMatrix values="0 0 0 0 0 0 0 0 0 0 0 0 0 0 0 0 0 0 0.25 0"/><feBlend in2="BackgroundImageFix" result="effect1_dropShadow_186_25329"/><feBlend in="SourceGraphic" in2="effect1_dropShadow_186_25329" result="shape"/></filter></defs></svg>
